tray-arrow-down.svg

<svg fill="currentColor" viewBox="0 0 24 24"><path d="M2 12h2v5h16v-5h2v5c0 1.11-.89 2-2 2H4a2 2 0 0 1-2-2zm10 3 5.55-5.46-1.42-1.41L13 11.25V2h-2v9.25L7.88 8.13 6.46 9.55z"/></svg>

<svg  viewBox="0 0 24 24" fill="currentColor"><path  d="M2 12H4V17H20V12H22V17C22 18.11 21.11 19 20 19H4C2.9 19 2 18.11 2 17V12M12 15L17.55 9.54L16.13 8.13L13 11.25V2H11V11.25L7.88 8.13L6.46 9.55L12 15Z"/></svg>
